X: 20
T: Finlay M. MacRae - Air
C:Phil Cunningham
M:3/4
L:1/8
Q:135
K:C
e3 d B2 | A4 A2 | a3 g e2 | g4 a2 | e3 d B2 | G4 G2 |
g3 e d2 | e g3 d2 | e3 d B2 | A4 A2 | a3 g e2 | g4 ag|
e3 d d2 | e g3 G2 |1 (A6 | A6) :|2 (A6  |A3) e g2||
a3 e g2 | a4 g2 | A3 a g2 | e4 d2 | e g3 e2 |
d4 B2 | G3 d A2 | B4 G2 | a3 e g2 | a4 g2 |
A3 a g2 | e4 d2 | e g3 e2 | d3 G  B2 | (A6 | A3 e g2 |
a3 e g2 | a4 g2 | A3 a g2 | e4 d2 | e g3 e2 | d4 B2 |
G3 d A2 | B4 G2 | A4 A2 | e3 d B2 | A3 a e2 |
g4 ag| e3 d d2 | e g3 G2 | A6 | A6 ||

%%sep 2 1 500

